X:112
T:Old Dan Tucker
S:American Veteran Fifer #112
M:2/4
L:1/8
Q:1/8=180
K:D 
%%MIDI program 72
%%MIDI transpose 8
%%MIDI ratio 3 1
((3A/B/c/) | dddA | dd dA/A/ | ddef | AABc |
dddA | dd dA/A/ | ddef | AA B:|
|: d | f>f f2 | ed Bd | e>e ef | AA Bd |
f>f a2 | fd Bd | e>e ef |[1AA B :|[2 Ac d2  |


